Gurmukhi/0A27.svg

<svg enable-background="new 0 0 336 592" viewBox="0 0 336 592" xmlns="http://www.w3.org/2000/svg"><path d="m123.646591 227.32605c-.424591-1.332092-.781921-2.267349-1.057968-3.226013-1.471947-5.111786-4.363701-7.445771-10.149231-7.089447-8.960548.551879-17.98159.049484-26.97332.205291-3.276955.056794-5.311424-.920761-6.373955-4.192154-1.23188-3.792739-2.931892-7.430648-4.288063-11.186538-1.595413-4.418473-.371635-6.302536 4.219246-6.686249 1.324204-.110687 2.663407-.053589 3.995735-.053391 55.298928.008393 110.597847.015488 165.896782.034684 5.821091.002014 11.642594.047744 17.462906.13858 1.471069.022949 3.267792-.082291 3.937592 1.563553 2.065796 5.076019 4.340362 10.119186 5.774109 15.382095.964233 3.539505-1.621338 4.961121-5.061158 4.93689-8.161163-.057511-16.323074-.036301-24.484527-.007385-6.542526.023178-6.557816.048935-6.556687 6.798019.00882 52.633926.024277 105.267838.036087 157.901749.000382 1.665527.069703 3.336853-.041595 4.995483-.322388 4.803833-2.662399 6.238861-6.953674 4.130096-5.07959-2.496124-9.99498-5.337768-15.134369-7.696685-3.167053-1.453583-4.379242-3.449128-4.332749-6.942749.168198-12.638947.066239-25.281433.066239-37.572724-.999924-.908813-1.634095-.670746-2.161621-.261108-21.629593 16.794342-44.287064 14.955383-66.88678 2.803772-17.960846-9.657379-30.704392-24.707276-40.216133-42.632141-2.067238-3.895691-1.98375-6.529724 1.261406-10.037964 11.174575-12.080597 19.480713-25.727631 20.565727-42.768295.396721-6.230668-.745018-12.21959-2.543999-18.537369m20.904129-1.201279c6.209015 15.511414 8.864639 31.285782 3.755142 47.706131-3.126617 10.048004-8.597488 18.726776-15.366561 26.636566-1.742234 2.035858-2.444016 3.599701-.523926 6.013581 22.637939 28.459808 57.777878 25.062225 76.6949 2.943603 3.139527-3.670868 4.671494-7.660828 4.623642-12.716064-.233352-24.655854-.209106-49.315873-.016113-73.972397.034958-4.466797-1.447388-5.702973-5.742905-5.66568-20.657928.179458-41.318222.07428-61.977508.131729-1.557648.004333-3.323471-.55928-4.994965 1.135071 1.067658 2.307785 2.170532 4.691681 3.548294 7.78746z"/></svg>

<svg version="1.1" id="Layer_1" xmlns="http://www.w3.org/2000/svg" xmlns:xlink="http://www.w3.org/1999/xlink" x="0px" y="0px"
	 width="100%" viewBox="0 0 336 592" enable-background="new 0 0 336 592" xml:space="preserve">
<path fill="#000000" opacity="1.000000" stroke="none" 
	d="
M123.646591,227.326050 
	C123.222000,225.993958 122.864670,225.058701 122.588623,224.100037 
	C121.116676,218.988251 118.224922,216.654266 112.439392,217.010590 
	C103.478844,217.562469 94.457802,217.060074 85.466072,217.215881 
	C82.189117,217.272675 80.154648,216.295120 79.092117,213.023727 
	C77.860237,209.230988 76.160225,205.593079 74.804054,201.837189 
	C73.208641,197.418716 74.432419,195.534653 79.023300,195.150940 
	C80.347504,195.040253 81.686707,195.097351 83.019035,195.097549 
	C138.317963,195.105942 193.616882,195.113037 248.915817,195.132233 
	C254.736908,195.134247 260.558411,195.179977 266.378723,195.270813 
	C267.849792,195.293762 269.646515,195.188522 270.316315,196.834366 
	C272.382111,201.910385 274.656677,206.953552 276.090424,212.216461 
	C277.054657,215.755966 274.469086,217.177582 271.029266,217.153351 
	C262.868103,217.095840 254.706192,217.117050 246.544739,217.145966 
	C240.002213,217.169144 239.986923,217.194901 239.988052,223.943985 
	C239.996872,276.577911 240.012329,329.211823 240.024139,381.845734 
	C240.024521,383.511261 240.093842,385.182587 239.982544,386.841217 
	C239.660156,391.645050 237.320145,393.080078 233.028870,390.971313 
	C227.949280,388.475189 223.033890,385.633545 217.894501,383.274628 
	C214.727448,381.821045 213.515259,379.825500 213.561752,376.331879 
	C213.729950,363.692932 213.627991,351.050446 213.627991,338.759155 
	C212.628067,337.850342 211.993896,338.088409 211.466370,338.498047 
	C189.836777,355.292389 167.179306,353.453430 144.579590,341.301819 
	C126.618744,331.644440 113.875198,316.594543 104.363457,298.669678 
	C102.296219,294.773987 102.379707,292.139954 105.624863,288.631714 
	C116.799438,276.551117 125.105576,262.904083 126.190590,245.863419 
	C126.587311,239.632751 125.445572,233.643829 123.646591,227.326050 
M144.550720,226.124771 
	C150.759735,241.636185 153.415359,257.410553 148.305862,273.830902 
	C145.179245,283.878906 139.708374,292.557678 132.939301,300.467468 
	C131.197067,302.503326 130.495285,304.067169 132.415375,306.481049 
	C155.053314,334.940857 190.193253,331.543274 209.110275,309.424652 
	C212.249802,305.753784 213.781769,301.763824 213.733917,296.708588 
	C213.500565,272.052734 213.524811,247.392715 213.717804,222.736191 
	C213.752762,218.269394 212.270416,217.033218 207.974899,217.070511 
	C187.316971,217.249969 166.656677,217.144791 145.997391,217.202240 
	C144.439743,217.206573 142.673920,216.642960 141.002426,218.337311 
	C142.070084,220.645096 143.172958,223.028992 144.550720,226.124771 
z"/>
</svg>
